vendor/shopware/storefront/Resources/app/storefront/dist/assets/icon/default/bold.svg

<svg xmlns="http://www.w3.org/2000/svg" width="24" height="24" viewBox="0 0 24 24">
  <path fill="#758CA3" fill-rule="evenodd" d="M5,3 C4.44771525,3 4,2.55228475 4,2 C4,1.44771525 4.44771525,1 5,1 L12,1 C15.3137085,1 18,3.6862915 18,7 C18,8.72715404 17.2702289,10.2838609 16.1022145,11.3785926 C18.3790519,12.2304297 20,14.4259185 20,17 C20,20.3137085 17.3137085,23 14,23 L5,23 C4.44771525,23 4,22.5522847 4,22 C4,21.4477153 4.44771525,21 5,21 L5,3 Z M7,3 L7,11 L12,11 C14.209139,11 16,9.209139 16,7 C16,4.790861 14.209139,3 12,3 L7,3 Z M7,13 L7,21 L14,21 C16.209139,21 18,19.209139 18,17 C18,14.790861 16.209139,13 14,13 L7,13 Z"/>
</svg>

<svg xmlns="http://www.w3.org/2000/svg" width="24" height="24" viewBox="0 0 24 24"><path fill="#758CA3" fill-rule="evenodd" d="M5 3c-.5523 0-1-.4477-1-1s.4477-1 1-1h7c3.3137 0 6 2.6863 6 6 0 1.7272-.7298 3.2839-1.8978 4.3786C18.3791 12.2304 20 14.4259 20 17c0 3.3137-2.6863 6-6 6H5c-.5523 0-1-.4477-1-1s.4477-1 1-1V3zm2 0v8h5c2.2091 0 4-1.7909 4-4 0-2.2091-1.7909-4-4-4H7zm0 10v8h7c2.2091 0 4-1.7909 4-4 0-2.2091-1.7909-4-4-4H7z"/></svg>
